X:7
T:Morgan Megan
T:Morgan Magan
R:carolan
C:Turlough O'Carolan (1670-1738)
Z:id:hn-carolan-7
M:2/4
K:G
D2 | D2G2 G2AB | cBAG Bcd2 | e2A2 A2G2 | GFEF D2EF |
G3A G2A2 | G2FE D2G2 | FGA2 A2EG | F2D2 D2EF |
GABG A2F2 | G6 B2 | c3B A2Bc | d4 e4 |
d2B2 cBAG | AGFE D2EF | GABG A2F2 | G6 dc |
B2d2 d2ef | g2G2 Bcd2 | g2G2 Bcd2 | edcB A3c |
BABc d2B2 | e2c2 d2B2 | cBA2 d2G2 | F2D2 D2GF |
E2C2 C2GD | E2C2 C2AE | F2D2 D2DE | FED2 d2Bc |
d3B edcB | cBAG FGAF | D2G2 BAGF | G6 ||
<end>
<start>
